assets/1. F-P/Mans shoe/Color/Mans.Shoe-color.svg

<svg width="100%" height="100%" viewBox="0 0 32 32" fill="none" xmlns="http://www.w3.org/2000/svg">
<g filter="url(#filter0_i_18_17204)">
<rect x="2.27344" y="27.0938" width="7.9375" height="2.9375" rx="0.15" fill="url(#paint0_linear_18_17204)"/>
<rect x="2.27344" y="27.0938" width="7.9375" height="2.9375" rx="0.15" fill="url(#paint1_linear_18_17204)"/>
<rect x="2.27344" y="27.0938" width="7.9375" height="2.9375" rx="0.15" fill="url(#paint2_linear_18_17204)"/>
</g>
<rect x="2.27344" y="27.0938" width="7.9375" height="2.9375" rx="0.15" fill="url(#paint3_linear_18_17204)"/>
<g filter="url(#filter1_iii_18_17204)">
<path d="M2.27344 19.75V26.875C2.27344 27.0131 2.38537 27.125 2.52344 27.125H11.658C13.1542 27.125 14.3672 28.338 14.3672 29.8342C14.3672 29.943 14.4554 30.0312 14.5642 30.0312H29.9641C30.0746 30.0312 30.1651 29.9428 30.1682 29.8323L30.1691 29.7988C30.1886 29.0941 30.2389 27.2728 29.8205 25.5625C28.9453 21.9844 26.2891 21.375 22.3047 20.5625C19.6138 20.0138 17.2785 18.6717 15.8495 17.6546C15.2811 17.25 14.6105 17 13.9128 17H5.02344C3.50465 17 2.27344 18.2312 2.27344 19.75Z" fill="#B5666B"/>
</g>
<path d="M2.27344 19.75V26.875C2.27344 27.0131 2.38537 27.125 2.52344 27.125H11.658C13.1542 27.125 14.3672 28.338 14.3672 29.8342C14.3672 29.943 14.4554 30.0312 14.5642 30.0312H29.9641C30.0746 30.0312 30.1651 29.9428 30.1682 29.8323L30.1691 29.7988C30.1886 29.0941 30.2389 27.2728 29.8205 25.5625C28.9453 21.9844 26.2891 21.375 22.3047 20.5625C19.6138 20.0138 17.2785 18.6717 15.8495 17.6546C15.2811 17.25 14.6105 17 13.9128 17H5.02344C3.50465 17 2.27344 18.2312 2.27344 19.75Z" fill="url(#paint4_linear_18_17204)"/>
<path d="M2.27344 19.75V26.875C2.27344 27.0131 2.38537 27.125 2.52344 27.125H11.658C13.1542 27.125 14.3672 28.338 14.3672 29.8342C14.3672 29.943 14.4554 30.0312 14.5642 30.0312H29.9641C30.0746 30.0312 30.1651 29.9428 30.1682 29.8323L30.1691 29.7988C30.1886 29.0941 30.2389 27.2728 29.8205 25.5625C28.9453 21.9844 26.2891 21.375 22.3047 20.5625C19.6138 20.0138 17.2785 18.6717 15.8495 17.6546C15.2811 17.25 14.6105 17 13.9128 17H5.02344C3.50465 17 2.27344 18.2312 2.27344 19.75Z" fill="url(#paint5_radial_18_17204)"/>
<g filter="url(#filter2_i_18_17204)">
<rect x="16.6445" y="17.1833" width="1.35956" height="3.59631" rx="0.679781" transform="rotate(45.0132 16.6445 17.1833)" fill="#825751"/>
</g>
<g filter="url(#filter3_i_18_17204)">
<rect x="19.5117" y="18.8083" width="1.35956" height="3.59631" rx="0.679781" transform="rotate(45.0132 19.5117 18.8083)" fill="#825751"/>
</g>
<g filter="url(#filter4_f_18_17204)">
<path d="M15.1562 19.8438L16.8438 18.1719" stroke="url(#paint6_linear_18_17204)" stroke-width="0.5" stroke-linecap="round"/>
</g>
<g filter="url(#filter5_f_18_17204)">
<path d="M18.0312 21.5232L19.7188 19.8513" stroke="url(#paint7_linear_18_17204)" stroke-width="0.5" stroke-linecap="round"/>
</g>
<defs>
<filter id="filter0_i_18_17204" x="2.22344" y="27.0938" width="7.9875" height="2.9875" filterUnits="userSpaceOnUse" color-interpolation-filters="sRGB">
<feFlood flood-opacity="0" result="BackgroundImageFix"/>
<feBlend mode="normal" in="SourceGraphic" in2="BackgroundImageFix" result="shape"/>
<feColorMatrix in="SourceAlpha" type="matrix" values="0 0 0 0 0 0 0 0 0 0 0 0 0 0 0 0 0 0 127 0" result="hardAlpha"/>
<feOffset dx="-0.05" dy="0.05"/>
<feGaussianBlur stdDeviation="0.05"/>
<feComposite in2="hardAlpha" operator="arithmetic" k2="-1" k3="1"/>
<feColorMatrix type="matrix" values="0 0 0 0 0.501961 0 0 0 0 0.25098 0 0 0 0 0.25098 0 0 0 1 0"/>
<feBlend mode="normal" in2="shape" result="effect1_innerShadow_18_17204"/>
</filter>
<filter id="filter1_iii_18_17204" x="-0.226562" y="16.9" width="30.4084" height="15.1313" filterUnits="userSpaceOnUse" color-interpolation-filters="sRGB">
<feFlood flood-opacity="0" result="BackgroundImageFix"/>
<feBlend mode="normal" in="SourceGraphic" in2="BackgroundImageFix" result="shape"/>
<feColorMatrix in="SourceAlpha" type="matrix" values="0 0 0 0 0 0 0 0 0 0 0 0 0 0 0 0 0 0 127 0" result="hardAlpha"/>
<feOffset dx="-2.5" dy="2"/>
<feGaussianBlur stdDeviation="1.5"/>
<feComposite in2="hardAlpha" operator="arithmetic" k2="-1" k3="1"/>
<feColorMatrix type="matrix" values="0 0 0 0 0.768627 0 0 0 0 0.505882 0 0 0 0 0.45098 0 0 0 1 0"/>
<feBlend mode="normal" in2="shape" result="effect1_innerShadow_18_17204"/>
<feColorMatrix in="SourceAlpha" type="matrix" values="0 0 0 0 0 0 0 0 0 0 0 0 0 0 0 0 0 0 127 0" result="hardAlpha"/>
<feOffset dx="-1.5" dy="1.5"/>
<feGaussianBlur stdDeviation="1"/>
<feComposite in2="hardAlpha" operator="arithmetic" k2="-1" k3="1"/>
<feColorMatrix type="matrix" values="0 0 0 0 0.67451 0 0 0 0 0.443137 0 0 0 0 0.337255 0 0 0 1 0"/>
<feBlend mode="normal" in2="effect1_innerShadow_18_17204" result="effect2_innerShadow_18_17204"/>
<feColorMatrix in="SourceAlpha" type="matrix" values="0 0 0 0 0 0 0 0 0 0 0 0 0 0 0 0 0 0 127 0" result="hardAlpha"/>
<feOffset dy="-0.1"/>
<feGaussianBlur stdDeviation="0.1"/>
<feComposite in2="hardAlpha" operator="arithmetic" k2="-1" k3="1"/>
<feColorMatrix type="matrix" values="0 0 0 0 0.686275 0 0 0 0 0.309804 0 0 0 0 0.486275 0 0 0 1 0"/>
<feBlend mode="normal" in2="effect2_innerShadow_18_17204" result="effect3_innerShadow_18_17204"/>
</filter>
<filter id="filter2_i_18_17204" x="14.3826" y="17.2148" width="3.44141" height="3.19083" filterUnits="userSpaceOnUse" color-interpolation-filters="sRGB">
<feFlood flood-opacity="0" result="BackgroundImageFix"/>
<feBlend mode="normal" in="SourceGraphic" in2="BackgroundImageFix" result="shape"/>
<feColorMatrix in="SourceAlpha" type="matrix" values="0 0 0 0 0 0 0 0 0 0 0 0 0 0 0 0 0 0 127 0" result="hardAlpha"/>
<feOffset dx="0.5" dy="-0.25"/>
<feGaussianBlur stdDeviation="0.25"/>
<feComposite in2="hardAlpha" operator="arithmetic" k2="-1" k3="1"/>
<feColorMatrix type="matrix" values="0 0 0 0 0.447059 0 0 0 0 0.219608 0 0 0 0 0.231373 0 0 0 1 0"/>
<feBlend mode="normal" in2="shape" result="effect1_innerShadow_18_17204"/>
</filter>
<filter id="filter3_i_18_17204" x="17.2498" y="18.8398" width="3.44141" height="3.19083" filterUnits="userSpaceOnUse" color-interpolation-filters="sRGB">
<feFlood flood-opacity="0" result="BackgroundImageFix"/>
<feBlend mode="normal" in="SourceGraphic" in2="BackgroundImageFix" result="shape"/>
<feColorMatrix in="SourceAlpha" type="matrix" values="0 0 0 0 0 0 0 0 0 0 0 0 0 0 0 0 0 0 127 0" result="hardAlpha"/>
<feOffset dx="0.5" dy="-0.25"/>
<feGaussianBlur stdDeviation="0.25"/>
<feComposite in2="hardAlpha" operator="arithmetic" k2="-1" k3="1"/>
<feColorMatrix type="matrix" values="0 0 0 0 0.447059 0 0 0 0 0.219608 0 0 0 0 0.231373 0 0 0 1 0"/>
<feBlend mode="normal" in2="shape" result="effect1_innerShadow_18_17204"/>
</filter>
<filter id="filter4_f_18_17204" x="14.6562" y="17.6719" width="2.6875" height="2.67188" filterUnits="userSpaceOnUse" color-interpolation-filters="sRGB">
<feFlood flood-opacity="0" result="BackgroundImageFix"/>
<feBlend mode="normal" in="SourceGraphic" in2="BackgroundImageFix" result="shape"/>
<feGaussianBlur stdDeviation="0.125" result="effect1_foregroundBlur_18_17204"/>
</filter>
<filter id="filter5_f_18_17204" x="17.5312" y="19.3513" width="2.6875" height="2.67188" filterUnits="userSpaceOnUse" color-interpolation-filters="sRGB">
<feFlood flood-opacity="0" result="BackgroundImageFix"/>
<feBlend mode="normal" in="SourceGraphic" in2="BackgroundImageFix" result="shape"/>
<feGaussianBlur stdDeviation="0.125" result="effect1_foregroundBlur_18_17204"/>
</filter>
<linearGradient id="paint0_linear_18_17204" x1="3.75781" y1="29.7812" x2="8.22656" y2="29.7812" gradientUnits="userSpaceOnUse">
<stop offset="0.342657" stop-color="#653D43"/>
<stop offset="1" stop-color="#8C4F69"/>
</linearGradient>
<linearGradient id="paint1_linear_18_17204" x1="10.2109" y1="29.9531" x2="9.85156" y2="29.9531" gradientUnits="userSpaceOnUse">
<stop offset="0.153846" stop-color="#926970"/>
<stop offset="1" stop-color="#926970" stop-opacity="0"/>
</linearGradient>
<linearGradient id="paint2_linear_18_17204" x1="2.05469" y1="29.125" x2="2.89844" y2="29.125" gradientUnits="userSpaceOnUse">
<stop stop-color="#725F60"/>
<stop offset="1" stop-color="#725F60" stop-opacity="0"/>
</linearGradient>
<linearGradient id="paint3_linear_18_17204" x1="7.00781" y1="30.0312" x2="7.00781" y2="29.8867" gradientUnits="userSpaceOnUse">
<stop stop-color="#893A7A"/>
<stop offset="1" stop-color="#893A7A" stop-opacity="0"/>
</linearGradient>
<linearGradient id="paint4_linear_18_17204" x1="2.27344" y1="25.8125" x2="8.44531" y2="25.8125" gradientUnits="userSpaceOnUse">
<stop offset="0.0600522" stop-color="#7A5047"/>
<stop offset="1" stop-color="#914E49" stop-opacity="0"/>
</linearGradient>
<radialGradient id="paint5_radial_18_17204" cx="0" cy="0" r="1" gradientUnits="userSpaceOnUse" gradientTransform="translate(28.1953 30.0313) rotate(-90) scale(7.34375 4.15617)">
<stop stop-color="#C78877"/>
<stop offset="1" stop-color="#BA706F" stop-opacity="0"/>
</radialGradient>
<linearGradient id="paint6_linear_18_17204" x1="15.25" y1="20.0625" x2="17.2656" y2="18" gradientUnits="userSpaceOnUse">
<stop stop-color="#873C70"/>
<stop offset="0.240554" stop-color="#9C7675"/>
<stop offset="0.591132" stop-color="#9C7675"/>
<stop offset="1" stop-color="#9C7675" stop-opacity="0"/>
</linearGradient>
<linearGradient id="paint7_linear_18_17204" x1="18.125" y1="21.7419" x2="20.1406" y2="19.6794" gradientUnits="userSpaceOnUse">
<stop stop-color="#873C70"/>
<stop offset="0.240554" stop-color="#9C7675"/>
<stop offset="0.591132" stop-color="#9C7675"/>
<stop offset="1" stop-color="#9C7675" stop-opacity="0"/>
</linearGradient>
</defs>
</svg>

<svg width="100%" height="100%" viewBox="0 0 32 32" xmlns="http://www.w3.org/2000/svg"><g filter="url(#a)"><rect width="7.938" height="2.938" x="2.273" y="27.094" fill="url(#b)" rx=".15"/><rect width="7.938" height="2.938" x="2.273" y="27.094" fill="url(#c)" rx=".15"/><rect width="7.938" height="2.938" x="2.273" y="27.094" fill="url(#d)" rx=".15"/></g><rect width="7.938" height="2.938" x="2.273" y="27.094" fill="url(#e)" rx=".15"/><g filter="url(#f)"><path fill="#B5666B" d="M2.273 19.75v7.125c0 .138.112.25.25.25h9.135a2.71 2.71 0 0 1 2.71 2.71c0 .108.087.196.196.196h15.4c.11 0 .201-.088.204-.199l.001-.033c.02-.705.07-2.526-.349-4.236-.875-3.579-3.53-4.188-7.515-5-2.691-.55-5.026-1.891-6.455-2.908-.569-.405-1.24-.655-1.937-.655h-8.89a2.75 2.75 0 0 0-2.75 2.75"/></g><path fill="url(#g)" d="M2.273 19.75v7.125c0 .138.112.25.25.25h9.135a2.71 2.71 0 0 1 2.71 2.71c0 .108.087.196.196.196h15.4c.11 0 .201-.088.204-.199l.001-.033c.02-.705.07-2.526-.349-4.236-.875-3.579-3.53-4.188-7.515-5-2.691-.55-5.026-1.891-6.455-2.908-.569-.405-1.24-.655-1.937-.655h-8.89a2.75 2.75 0 0 0-2.75 2.75"/><path fill="url(#h)" d="M2.273 19.75v7.125c0 .138.112.25.25.25h9.135a2.71 2.71 0 0 1 2.71 2.71c0 .108.087.196.196.196h15.4c.11 0 .201-.088.204-.199l.001-.033c.02-.705.07-2.526-.349-4.236-.875-3.579-3.53-4.188-7.515-5-2.691-.55-5.026-1.891-6.455-2.908-.569-.405-1.24-.655-1.937-.655h-8.89a2.75 2.75 0 0 0-2.75 2.75"/><g filter="url(#i)"><rect width="1.36" height="3.596" x="16.645" y="17.183" fill="#825751" rx=".68" transform="rotate(45.013 16.645 17.183)"/></g><g filter="url(#j)"><rect width="1.36" height="3.596" x="19.512" y="18.808" fill="#825751" rx=".68" transform="rotate(45.013 19.512 18.808)"/></g><g filter="url(#k)"><path stroke="url(#l)" stroke-linecap="round" stroke-width=".5" d="m15.156 19.844 1.688-1.672"/></g><g filter="url(#m)"><path stroke="url(#n)" stroke-linecap="round" stroke-width=".5" d="m18.031 21.523 1.688-1.672"/></g><defs><linearGradient id="b" x1="3.758" x2="8.227" y1="29.781" y2="29.781" gradientUnits="userSpaceOnUse"><stop offset=".343" stop-color="#653D43"/><stop offset="1" stop-color="#8C4F69"/></linearGradient><linearGradient id="c" x1="10.211" x2="9.852" y1="29.953" y2="29.953" gradientUnits="userSpaceOnUse"><stop offset=".154" stop-color="#926970"/><stop offset="1" stop-color="#926970" stop-opacity="0"/></linearGradient><linearGradient id="d" x1="2.055" x2="2.898" y1="29.125" y2="29.125" gradientUnits="userSpaceOnUse"><stop stop-color="#725F60"/><stop offset="1" stop-color="#725F60" stop-opacity="0"/></linearGradient><linearGradient id="e" x1="7.008" x2="7.008" y1="30.031" y2="29.887" gradientUnits="userSpaceOnUse"><stop stop-color="#893A7A"/><stop offset="1" stop-color="#893A7A" stop-opacity="0"/></linearGradient><linearGradient id="g" x1="2.273" x2="8.445" y1="25.813" y2="25.813" gradientUnits="userSpaceOnUse"><stop offset=".06" stop-color="#7A5047"/><stop offset="1" stop-color="#914E49" stop-opacity="0"/></linearGradient><linearGradient id="l" x1="15.25" x2="17.266" y1="20.063" y2="18" gradientUnits="userSpaceOnUse"><stop stop-color="#873C70"/><stop offset=".241" stop-color="#9C7675"/><stop offset=".591" stop-color="#9C7675"/><stop offset="1" stop-color="#9C7675" stop-opacity="0"/></linearGradient><linearGradient id="n" x1="18.125" x2="20.141" y1="21.742" y2="19.679" gradientUnits="userSpaceOnUse"><stop stop-color="#873C70"/><stop offset=".241" stop-color="#9C7675"/><stop offset=".591" stop-color="#9C7675"/><stop offset="1" stop-color="#9C7675" stop-opacity="0"/></linearGradient><filter id="a" width="7.987" height="2.987" x="2.223" y="27.094" color-interpolation-filters="sRGB" filterUnits="userSpaceOnUse"><feFlood flood-opacity="0" result="BackgroundImageFix"/><feBlend in="SourceGraphic" in2="BackgroundImageFix" result="shape"/><feColorMatrix in="SourceAlpha" result="hardAlpha" values="0 0 0 0 0 0 0 0 0 0 0 0 0 0 0 0 0 0 127 0"/><feOffset dx="-.05" dy=".05"/><feGaussianBlur stdDeviation=".05"/><feComposite in2="hardAlpha" k2="-1" k3="1" operator="arithmetic"/><feColorMatrix values="0 0 0 0 0.501961 0 0 0 0 0.25098 0 0 0 0 0.25098 0 0 0 1 0"/><feBlend in2="shape" result="effect1_innerShadow_18_17204"/></filter><filter id="f" width="30.408" height="15.131" x="-.227" y="16.9" color-interpolation-filters="sRGB" filterUnits="userSpaceOnUse"><feFlood flood-opacity="0" result="BackgroundImageFix"/><feBlend in="SourceGraphic" in2="BackgroundImageFix" result="shape"/><feColorMatrix in="SourceAlpha" result="hardAlpha" values="0 0 0 0 0 0 0 0 0 0 0 0 0 0 0 0 0 0 127 0"/><feOffset dx="-2.5" dy="2"/><feGaussianBlur stdDeviation="1.5"/><feComposite in2="hardAlpha" k2="-1" k3="1" operator="arithmetic"/><feColorMatrix values="0 0 0 0 0.768627 0 0 0 0 0.505882 0 0 0 0 0.45098 0 0 0 1 0"/><feBlend in2="shape" result="effect1_innerShadow_18_17204"/><feColorMatrix in="SourceAlpha" result="hardAlpha" values="0 0 0 0 0 0 0 0 0 0 0 0 0 0 0 0 0 0 127 0"/><feOffset dx="-1.5" dy="1.5"/><feGaussianBlur stdDeviation="1"/><feComposite in2="hardAlpha" k2="-1" k3="1" operator="arithmetic"/><feColorMatrix values="0 0 0 0 0.67451 0 0 0 0 0.443137 0 0 0 0 0.337255 0 0 0 1 0"/><feBlend in2="effect1_innerShadow_18_17204" result="effect2_innerShadow_18_17204"/><feColorMatrix in="SourceAlpha" result="hardAlpha" values="0 0 0 0 0 0 0 0 0 0 0 0 0 0 0 0 0 0 127 0"/><feOffset dy="-.1"/><feGaussianBlur stdDeviation=".1"/><feComposite in2="hardAlpha" k2="-1" k3="1" operator="arithmetic"/><feColorMatrix values="0 0 0 0 0.686275 0 0 0 0 0.309804 0 0 0 0 0.486275 0 0 0 1 0"/><feBlend in2="effect2_innerShadow_18_17204" result="effect3_innerShadow_18_17204"/></filter><filter id="i" width="3.441" height="3.191" x="14.383" y="17.215" color-interpolation-filters="sRGB" filterUnits="userSpaceOnUse"><feFlood flood-opacity="0" result="BackgroundImageFix"/><feBlend in="SourceGraphic" in2="BackgroundImageFix" result="shape"/><feColorMatrix in="SourceAlpha" result="hardAlpha" values="0 0 0 0 0 0 0 0 0 0 0 0 0 0 0 0 0 0 127 0"/><feOffset dx=".5" dy="-.25"/><feGaussianBlur stdDeviation=".25"/><feComposite in2="hardAlpha" k2="-1" k3="1" operator="arithmetic"/><feColorMatrix values="0 0 0 0 0.447059 0 0 0 0 0.219608 0 0 0 0 0.231373 0 0 0 1 0"/><feBlend in2="shape" result="effect1_innerShadow_18_17204"/></filter><filter id="j" width="3.441" height="3.191" x="17.25" y="18.84" color-interpolation-filters="sRGB" filterUnits="userSpaceOnUse"><feFlood flood-opacity="0" result="BackgroundImageFix"/><feBlend in="SourceGraphic" in2="BackgroundImageFix" result="shape"/><feColorMatrix in="SourceAlpha" result="hardAlpha" values="0 0 0 0 0 0 0 0 0 0 0 0 0 0 0 0 0 0 127 0"/><feOffset dx=".5" dy="-.25"/><feGaussianBlur stdDeviation=".25"/><feComposite in2="hardAlpha" k2="-1" k3="1" operator="arithmetic"/><feColorMatrix values="0 0 0 0 0.447059 0 0 0 0 0.219608 0 0 0 0 0.231373 0 0 0 1 0"/><feBlend in2="shape" result="effect1_innerShadow_18_17204"/></filter><filter id="k" width="2.688" height="2.672" x="14.656" y="17.672" color-interpolation-filters="sRGB" filterUnits="userSpaceOnUse"><feFlood flood-opacity="0" result="BackgroundImageFix"/><feBlend in="SourceGraphic" in2="BackgroundImageFix" result="shape"/><feGaussianBlur result="effect1_foregroundBlur_18_17204" stdDeviation=".125"/></filter><filter id="m" width="2.688" height="2.672" x="17.531" y="19.351" color-interpolation-filters="sRGB" filterUnits="userSpaceOnUse"><feFlood flood-opacity="0" result="BackgroundImageFix"/><feBlend in="SourceGraphic" in2="BackgroundImageFix" result="shape"/><feGaussianBlur result="effect1_foregroundBlur_18_17204" stdDeviation=".125"/></filter><radialGradient id="h" cx="0" cy="0" r="1" gradientTransform="matrix(0 -7.34375 4.15617 0 28.195 30.031)" gradientUnits="userSpaceOnUse"><stop stop-color="#C78877"/><stop offset="1" stop-color="#BA706F" stop-opacity="0"/></radialGradient></defs></svg>
